X:4316
T:MODWARK1- Mowdewort
O:england
S:Walsh's Caledonian Country Dances, III, c 1740
Q:1/4=120
L:1/8
M:6/8
K:DM
f|cAF GAc|d2GG2f|cAF ABG|F2DD2f|cAF GAc|dcA GAc|dcA cAG|\
G2DD2::z|fcf gcg|aca gcg|fcf gcg|a2AA3|cc3/2f/ fed|gAg gab|\
afd ge^c|d2DD2::fgf fed|gag gfe|fga gab|a2AA3|fgf fed|gag gab|\
afd ge^c|d2DD2:|]


